public/style/workarea/images/icons/exe-link-icon.svg

<svg fill="none" height="16" viewBox="0 0 17 16" width="17" xmlns="http://www.w3.org/2000/svg" xmlns:xlink="http://www.w3.org/1999/xlink"><clipPath id="a"><path d="m.014648 0h16v16h-16z"/></clipPath><g clip-path="url(#a)" stroke="#0ba1a1" stroke-linecap="round" stroke-linejoin="round" stroke-width="1.5"><path d="m6.6814 8.66666c.2863.38276.65157.69946 1.07103.92863s.8833.36545 1.36007.3996c.47676.03411.9553-.03465 1.4031-.20171.4479-.16705.8545-.42847 1.1925-.76652l2-2c.6072-.62867.9431-1.47068.9355-2.34467s-.3581-1.71003-.9761-2.32805c-.6181-.61803-1.4541-.96859-2.3281-.97619-.874-.00759-1.716.32839-2.34467.93558l-1.14667 1.14"/><path d="m9.34787 7.33332c-.2863-.38275-.65157-.69945-1.07103-.92863-.41947-.22917-.88331-.36545-1.36007-.39959-.47676-.03415-.95529.03464-1.40313.2017s-.85451.42847-1.19244.76652l-2 2c-.60719.62867-.94317 1.47068-.93558 2.34468.0076.874.35816 1.71.97619 2.328.61803.6181 1.45407.9686 2.32806.9762s1.71599-.3284 2.34467-.9355l1.14-1.14"/></g></svg>

<svg width="17" height="16" viewBox="0 0 17 16" fill="none" xmlns="http://www.w3.org/2000/svg">
<g clip-path="url(#clip0_14_465)">
<path d="M6.6814 8.66666C6.9677 9.04942 7.33297 9.36612 7.75243 9.59529C8.17189 9.82446 8.63573 9.96074 9.1125 9.99489C9.58926 10.029 10.0678 9.96024 10.5156 9.79318C10.9635 9.62613 11.3701 9.36471 11.7081 9.02666L13.7081 7.02666C14.3153 6.39799 14.6512 5.55598 14.6436 4.68199C14.636 3.808 14.2855 2.97196 13.6675 2.35394C13.0494 1.73591 12.2134 1.38535 11.3394 1.37775C10.4654 1.37016 9.6234 1.70614 8.99473 2.31333L7.84806 3.45333" stroke="#0BA1A1" stroke-width="1.5" stroke-linecap="round" stroke-linejoin="round"/>
<path d="M9.34787 7.33332C9.06157 6.95057 8.6963 6.63387 8.27684 6.40469C7.85737 6.17552 7.39353 6.03924 6.91677 6.0051C6.44001 5.97095 5.96148 6.03974 5.51364 6.2068C5.0658 6.37386 4.65913 6.63527 4.3212 6.97332L2.3212 8.97332C1.71401 9.60199 1.37803 10.444 1.38562 11.318C1.39322 12.192 1.74378 13.028 2.36181 13.646C2.97984 14.2641 3.81588 14.6146 4.68987 14.6222C5.56386 14.6298 6.40586 14.2938 7.03454 13.6867L8.17454 12.5467" stroke="#0BA1A1" stroke-width="1.5" stroke-linecap="round" stroke-linejoin="round"/>
</g>
<defs>
<clipPath id="clip0_14_465">
<rect width="16" height="16" fill="white" transform="translate(0.0146484)"/>
</clipPath>
</defs>
</svg>
